icons/frame1.svg

<svg width="80" height="89" viewBox="0 0 80 89" fill="none" xmlns="http://www.w3.org/2000/svg">
<g clip-path="url(#clip0_223_1026)">
<path d="M38.3119 17.6489C39.7029 18.9088 39.7991 20.5821 39.7881 22.2886C39.7606 22.8399 39.7111 23.3913 39.7111 23.9261C39.7111 33.799 39.7111 43.6719 39.7111 53.5448C39.7111 56.4229 39.7469 59.301 39.7661 62.179C39.7441 63.4499 39.7139 64.7235 39.7029 65.9972C39.6864 67.767 39.516 67.9269 37.7484 67.96C37.3855 67.96 37.0227 67.9848 36.6488 67.9986C35.7361 67.9986 34.8207 67.9683 33.8999 67.9655C30.7963 67.9517 28.8693 66.0909 28.7648 62.9647C28.7346 62.0495 28.7648 61.1315 28.7648 60.208C28.7456 58.303 28.3992 57.986 26.4942 58.099C21.9859 57.7296 18.9868 54.4794 19.0913 49.9583C19.1105 49.0485 18.8164 48.5799 18.0989 48.0975C17.2662 47.5325 16.5527 46.8086 15.9992 45.967C15.4456 45.1254 15.0627 44.1827 14.8726 43.1927C14.6824 42.2028 14.6886 41.1849 14.8907 40.1973C15.0929 39.2097 15.4872 38.2718 16.0509 37.437C16.6529 36.5604 16.8261 35.8464 16.3258 34.9559C15.8805 34.1785 15.8282 33.3239 15.798 32.461C16.0427 28.8579 17.6783 26.2252 21.1255 24.9075C21.3607 24.8447 21.57 24.7087 21.7232 24.5189C21.8763 24.3291 21.9655 24.0955 21.9777 23.8517C22.5659 19.2809 27.1127 15.8377 32.201 17.4311C32.6384 17.5578 33.1079 17.5084 33.5095 17.2933C34.2701 16.9222 35.115 16.7597 35.9585 16.8221C36.802 16.8846 37.614 17.1698 38.3119 17.6489ZM24.8586 55.05C25.3557 55.3224 25.9021 55.4927 26.4656 55.5509C27.0292 55.6091 27.5987 55.5541 28.1408 55.3891C30.5516 54.7523 31.7777 53.0845 32.245 50.7577C32.4292 49.848 33.0064 49.655 33.7514 49.8039C34.4964 49.9528 34.7988 50.4959 34.6723 51.2319C34.465 52.4923 34.0089 53.6985 33.3308 54.7799C32.6601 55.8385 30.9805 56.3347 30.8733 57.3299C30.7578 58.394 31.5 59.6345 31.423 60.8971C31.1481 65.9834 32.3384 65.4872 36.2475 65.4789C36.2923 65.4761 36.3373 65.4761 36.3822 65.4789C37.0446 65.5478 37.2481 65.2253 37.2453 64.5912C37.2178 56.3558 37.2004 48.1223 37.1931 39.8906C37.1931 36.9105 37.2233 33.9332 37.2288 30.9559C37.2197 29.7147 36.7398 28.5236 35.8866 27.6245C35.0334 26.7254 33.871 26.1857 32.6353 26.115C31.7474 26.0543 30.9227 26.3438 30.0678 26.4237C29.5428 26.4733 28.905 26.5478 28.7538 25.7869C28.6026 25.026 28.6823 24.4085 29.4905 24.0777C30.1289 23.8291 30.8006 23.6767 31.4835 23.6256C33.5452 23.4547 35.4118 24.0253 37.2371 25.3072C37.2371 23.9867 37.2371 22.9364 37.2371 21.8833C37.2371 19.3884 36.4481 18.8233 34.117 19.7606C33.6837 19.9561 33.215 20.0607 32.7399 20.0678C32.2648 20.0749 31.7933 19.9844 31.3543 19.802C29.9139 19.2341 28.4734 19.4601 27.1402 20.221C24.0504 21.9798 23.5226 25.7538 25.9856 28.676C26.5986 29.4038 26.934 30.1068 26.1258 30.8042C25.3176 31.5017 24.6579 30.9807 24.1053 30.3769C23.4868 29.7015 22.8848 28.9792 22.6072 28.0943C22.3295 27.2094 21.9117 27.2673 21.2162 27.6284C20.1173 28.216 19.2577 29.1702 18.786 30.3259C18.3142 31.4817 18.26 32.7665 18.6327 33.9581C19.0054 35.1497 19.7816 36.1733 20.8271 36.8518C21.8726 37.5303 23.1216 37.8212 24.3582 37.6741C25.0895 37.5776 25.4826 37.2882 25.5568 36.4804C25.6294 35.5198 25.8772 34.5807 26.288 33.7099C26.6839 32.9021 27.2117 32.4307 28.1271 32.8608C28.9847 33.2633 28.9325 33.947 28.6466 34.7161C27.5278 37.7485 28.1298 39.8713 30.6671 41.6576C31.3846 42.1621 31.7337 42.7328 31.2829 43.4854C30.7825 44.3124 29.9936 44.238 29.2431 43.7969C28.0535 43.0951 27.0972 42.0564 26.4942 40.8113C26.167 40.158 25.9196 39.9099 25.0757 40.0753C23.3085 40.4298 21.473 40.126 19.9132 39.2207C18.305 38.3109 17.8515 38.5287 17.4749 40.4143C17.3127 40.9846 17.2568 41.5799 17.3099 42.1704C17.9037 45.8397 20.8341 47.7556 24.4077 46.708C25.2324 46.4655 25.9087 46.4903 26.2138 47.3421C26.5629 48.3097 26.0626 48.9162 25.1142 49.1891C24.2447 49.4767 23.3286 49.5955 22.4147 49.5392C21.7275 49.4703 21.5681 49.7791 21.5626 50.4132C21.5571 52.3153 22.8463 54.1679 24.8586 55.05Z" fill="white"/>
<path d="M29.5628 83.0503C28.9278 82.0441 29.0982 80.6932 28.0179 79.8249C27.5753 79.4665 27.8777 78.7221 28.4055 78.2755C29.1972 77.6167 29.2852 76.9771 28.4055 76.2714C27.655 75.6704 27.6798 74.9619 28.3423 74.2672C29.3456 73.2114 29.2522 72.8282 27.853 72.2548C27.1265 71.9653 26.5029 71.4647 26.0621 70.8173C25.6213 70.17 25.3834 69.4053 25.3789 68.6213C25.3789 67.8853 25.6016 67.3119 26.3493 67.1906C27.152 67.061 27.7458 67.5241 27.798 68.2933C27.897 69.7406 28.7436 69.9611 29.9449 69.9253C31.9984 69.8646 34.0683 69.8895 36.1108 69.8784C41.5427 69.8784 46.9765 69.8895 52.4121 69.9115C53.3357 69.9115 53.8086 69.5393 53.9955 68.5938C54.3034 67.0445 55.0951 66.7881 56.4036 67.7199C56.6372 70.0025 55.8071 71.5959 53.5447 72.3678C52.4946 72.7262 52.588 73.5532 53.2285 74.1735C54.0367 74.9536 54.0725 75.5133 53.245 76.3017C52.6238 76.8889 52.599 77.6139 53.3193 78.2811C53.979 78.8876 54.1439 79.574 53.3495 80.2466C53.1048 80.4506 52.8519 80.6657 52.8602 81.0268C52.9014 82.8022 51.7606 83.7284 50.3861 84.47C49.2041 84.4866 48.0193 84.5362 46.8372 84.5031C46.0565 84.4783 45.7129 84.6713 45.6909 85.5562C45.6387 87.621 44.5748 88.5886 42.4994 88.6079C41.3998 88.6079 40.314 88.6245 39.2226 88.6079C37.3891 88.5721 36.2428 87.5383 36.1218 85.683C36.0723 84.9166 35.8332 84.6051 35.0717 84.6685C34.6209 84.7071 34.1618 84.6685 33.6972 84.6685C32.0836 84.7677 30.6651 84.3101 29.5628 83.0503ZM41.0452 72.3871C38.3952 72.3871 35.7452 72.3513 33.0952 72.4147C32.5124 72.4284 31.5008 71.8633 31.4321 73.1562C31.3634 74.4492 32.3805 73.8895 32.9798 74.0274C33.0713 74.0343 33.1632 74.0343 33.2547 74.0274C34.0079 74.0742 34.4477 74.4602 34.4587 75.2321C34.4697 76.004 34.0546 76.423 33.2959 76.4754C32.8863 76.5057 32.4712 76.4974 32.0644 76.4919C31.4733 76.4919 31.4293 76.8668 31.4266 77.319C31.4239 77.7711 31.5228 78.146 32.0946 78.1239C32.4575 78.1239 32.8231 78.1239 33.1942 78.1239C33.9556 78.1239 34.401 78.4823 34.4669 79.2542C34.5357 80.0812 34.0161 80.401 33.3344 80.5499C33.0595 80.6078 32.7846 80.5499 32.5097 80.5885C32.1468 80.6436 31.586 80.3597 31.5036 80.9689C31.4321 81.4844 31.8362 81.818 32.2788 81.9834C32.661 82.1255 33.0643 82.2019 33.4718 82.2095C38.4529 82.2095 43.4313 82.2095 48.4124 82.2095C48.9634 82.2453 49.5092 82.083 49.9518 81.7518C50.0933 81.6697 50.2073 81.5472 50.2793 81.4C50.3512 81.2527 50.3779 81.0873 50.3559 80.9248C50.2652 80.4892 49.8748 80.594 49.5752 80.5802C49.1166 80.5902 48.6579 80.5764 48.2007 80.5389C47.5052 80.4258 47.0022 80.0619 47.0544 79.257C47.1066 78.452 47.5602 78.1184 48.3134 78.1074C48.7697 78.1074 49.2288 78.0853 49.6879 78.1074C50.3394 78.1322 50.4136 77.738 50.4164 77.217C50.4191 76.6959 50.2019 76.4671 49.6824 76.4809C49.1803 76.5016 48.6775 76.4961 48.176 76.4644C48.0268 76.4645 47.8792 76.4343 47.7421 76.3755C47.605 76.3166 47.4812 76.2304 47.3783 76.1221C47.2755 76.0138 47.1957 75.8857 47.1438 75.7455C47.0919 75.6052 47.0689 75.4559 47.0764 75.3065C47.0489 74.5484 47.431 74.0963 48.1952 74.0191C48.5553 73.986 48.9237 74.0191 49.2948 74.0053C49.8171 73.986 50.4136 74.1569 50.4411 73.261C50.4686 72.365 49.9078 72.3733 49.281 72.3733C46.5266 72.3926 43.7859 72.3871 41.0452 72.3871ZM40.9902 84.5169C40.4404 84.5169 39.8906 84.5169 39.3408 84.5169C38.8735 84.5169 38.5464 84.6465 38.5519 85.2033C38.5519 85.7133 38.6728 86.1268 39.2804 86.1323C40.3799 86.1323 41.4603 86.1323 42.5516 86.1323C43.1674 86.1323 43.2718 85.7161 43.2691 85.2033C43.2691 84.652 42.9475 84.5141 42.4774 84.5196C42.0073 84.5252 41.496 84.5224 40.9902 84.5224V84.5169Z" fill="white"/>
<path d="M5.49821 37.3984H9.46496C10.3309 37.3984 10.8889 37.7844 10.8642 38.6996C10.8394 39.5515 10.2676 39.8906 9.4897 39.8933C6.79755 39.8933 4.10633 39.8933 1.41602 39.8933C0.566597 39.8933 -0.0271811 39.4688 0.00305739 38.5811C0.0332959 37.7761 0.580337 37.3957 1.39403 37.4012C2.7685 37.415 4.14298 37.4012 5.50096 37.4012L5.49821 37.3984Z" fill="white"/>
<path d="M42.0449 21.4615C42.0669 20.3588 42.0917 19.2561 42.1054 18.1534C42.1301 16.4111 42.4958 16.0279 44.2633 16.2567C47.1653 16.6295 49.9771 17.5212 52.5652 18.8895C57.3132 21.5361 60.9839 25.7705 62.937 30.8538C64.5643 36.0669 64.7128 41.2827 62.871 46.4765C61.3178 50.8597 58.7476 54.5455 54.9595 57.2444C53.519 58.2672 52.9033 59.403 53.0352 61.1397C53.1259 62.2176 53.1947 63.3286 52.8758 64.4148C52.2133 66.6671 50.5777 67.949 48.2548 67.9655C46.7924 67.9655 45.3272 67.9131 43.8565 67.9655C42.5232 68.0262 42.0724 67.4142 42.0999 66.1516C42.1384 64.4589 42.0697 62.7635 42.0477 61.0708C42.0669 60.7951 42.1026 60.5195 42.1026 60.2438C42.1026 47.6288 42.1026 35.0138 42.1026 22.3988C42.1329 22.0983 42.0834 21.7813 42.0449 21.4615ZM44.6537 55.5738C44.6537 57.7792 44.6179 59.9709 44.6124 62.1708C44.6124 65.636 44.6124 65.636 48.1064 65.4789C48.1998 65.4789 48.2905 65.4789 48.3813 65.4789C49.6018 65.3576 50.3797 64.5692 50.421 63.3341C50.4595 62.2314 50.4017 61.1287 50.443 60.026C50.5034 58.3444 51.078 56.8888 52.5184 55.9046C54.1663 54.8314 55.6403 53.5112 56.8893 51.99C61.0127 46.7852 62.6428 40.9629 61.1611 34.4018C59.9433 28.4141 56.5979 24.0336 51.2182 21.1941C49.5189 20.2318 47.6905 19.5197 45.789 19.0797C45.0028 18.895 44.6124 19.008 44.6344 19.9618C44.6949 22.7545 44.6757 25.5471 44.6894 28.3369C44.6802 37.4177 44.672 46.4967 44.6647 55.5738H44.6537Z" fill="white"/>
<path d="M40.597 76.4783C39.8686 76.4783 39.1374 76.4976 38.3979 76.4783C38.2487 76.4784 38.1011 76.4482 37.964 76.3894C37.8269 76.3305 37.7031 76.2444 37.6003 76.136C37.4974 76.0277 37.4176 75.8996 37.3657 75.7594C37.3138 75.6191 37.2908 75.4698 37.2983 75.3204C37.2708 74.6147 37.6392 74.0606 38.4254 74.044C39.9263 74.0146 41.4291 74.0146 42.9337 74.044C43.6951 74.0578 44.1075 74.5154 44.1075 75.2735C44.1075 76.0317 43.6731 76.459 42.9172 76.4893C42.1612 76.5196 41.3695 76.4893 40.5943 76.4893L40.597 76.4783Z" fill="white"/>
<path d="M40.6099 80.583C39.9722 80.583 39.3344 80.6105 38.6994 80.583C37.8747 80.5389 37.2782 80.1033 37.2892 79.2404C37.3002 78.3775 37.916 78.1184 38.7022 78.1377C40.1124 78.1542 41.5226 78.1377 42.9328 78.1377C43.5431 78.1377 43.9939 78.3224 44.0709 79.0337C44.1478 79.7449 43.9499 80.3541 43.1857 80.4754C42.339 80.6105 41.4704 80.5967 40.6127 80.6491L40.6099 80.583Z" fill="white"/>
<path d="M57.5328 37.1475C57.3953 37.925 56.8648 38.2503 56.1583 38.3743C55.526 38.242 55.1082 37.9553 55.0065 37.2247C54.4567 33.164 52.6314 29.8834 49.1045 27.6477C48.4805 27.2507 48.3155 26.6332 48.7801 25.9936C49.2996 25.2769 49.9237 25.2052 50.6796 25.6959C54.825 28.3893 57.005 32.2653 57.5328 37.1475Z" fill="white"/>
<path d="M55.0456 41.5112C56.6235 41.6077 57.0963 42.1453 56.5933 43.5237C56.091 45.0285 55.3207 46.4296 54.3199 47.6588C53.3853 48.7477 52.797 48.7119 51.8458 47.5679C51.8003 47.3644 51.8014 47.1533 51.849 46.9504C51.8967 46.7474 51.9896 46.558 52.1207 46.3962C53.0562 45.1534 53.8028 43.7785 54.3364 42.3162C54.4656 42.0102 54.8065 41.7814 55.0456 41.5112Z" fill="white"/>
</g>
<defs>
<clipPath id="clip0_223_1026">
<rect width="80" height="88.6274" fill="white"/>
</clipPath>
</defs>
</svg>

<svg width="80" height="89" fill="none" xmlns="http://www.w3.org/2000/svg"><g clip-path="url(#a)" fill="#fff"><path d="M38.312 17.649c1.39 1.26 1.487 2.933 1.476 4.64-.027.55-.077 1.102-.077 1.637v29.619c0 2.878.036 5.756.055 8.634-.022 1.27-.052 2.544-.063 3.818-.017 1.77-.187 1.93-1.955 1.963-.362 0-.725.025-1.1.039-.912 0-1.827-.03-2.748-.033-3.104-.014-5.03-1.875-5.135-5.001-.03-.916 0-1.834 0-2.757-.02-1.905-.366-2.222-2.27-2.109-4.51-.37-7.508-3.62-7.404-8.14.02-.91-.275-1.38-.992-1.862a7.663 7.663 0 0 1-3.226-4.904 7.697 7.697 0 0 1 1.178-5.756c.602-.877.775-1.59.275-2.481-.446-.778-.498-1.632-.528-2.495.245-3.603 1.88-6.236 5.327-7.553a1.149 1.149 0 0 0 .853-1.056c.588-4.571 5.135-8.014 10.223-6.42.437.126.907.076 1.309-.139a4.78 4.78 0 0 1 4.802.356zM24.859 55.05a4.254 4.254 0 0 0 3.282.34c2.41-.638 3.637-2.306 4.104-4.632.184-.91.761-1.103 1.506-.954.745.149 1.048.692.921 1.428a9.616 9.616 0 0 1-1.341 3.548c-.67 1.059-2.35 1.555-2.458 2.55-.115 1.064.627 2.305.55 3.567-.275 5.086.915 4.59 4.825 4.582.044-.003.09-.003.134 0 .663.069.866-.254.863-.888-.027-8.235-.045-16.469-.052-24.7 0-2.98.03-5.958.036-8.935a4.892 4.892 0 0 0-1.342-3.331 4.865 4.865 0 0 0-3.252-1.51c-.888-.06-1.712.229-2.567.309-.525.05-1.163.124-1.314-.637-.151-.761-.072-1.378.736-1.71a6.914 6.914 0 0 1 1.994-.451c2.061-.171 3.928.4 5.753 1.681v-3.424c0-2.495-.789-3.06-3.12-2.122a3.475 3.475 0 0 1-2.763.041c-1.44-.568-2.88-.342-4.214.419-3.09 1.759-3.617 5.533-1.154 8.455.613.728.948 1.43.14 2.128-.808.698-1.468.177-2.02-.427-.62-.675-1.221-1.398-1.499-2.283-.277-.885-.695-.827-1.39-.466a5.351 5.351 0 0 0-2.431 2.698 5.37 5.37 0 0 0-.153 3.632 5.354 5.354 0 0 0 2.194 2.894 5.33 5.33 0 0 0 3.531.822c.732-.096 1.125-.386 1.199-1.194.072-.96.32-1.9.731-2.77.396-.808.924-1.28 1.84-.85.857.403.805 1.087.519 1.856-1.12 3.032-.517 5.155 2.02 6.942.718.504 1.067 1.075.616 1.827-.5.827-1.29.753-2.04.312a7.016 7.016 0 0 1-2.749-2.986c-.327-.653-.574-.901-1.418-.736a7.388 7.388 0 0 1-5.163-.854c-1.608-.91-2.061-.692-2.438 1.193a4.836 4.836 0 0 0-.165 1.756c.594 3.67 3.524 5.586 7.098 4.538.824-.242 1.5-.218 1.806.634.349.968-.151 1.574-1.1 1.847a7.188 7.188 0 0 1-2.7.35c-.687-.069-.846.24-.851.874-.006 1.902 1.283 3.755 3.296 4.637z"/><path d="M29.563 83.05c-.635-1.006-.465-2.357-1.545-3.225-.443-.359-.14-1.103.387-1.55.792-.658.88-1.298 0-2.004-.75-.6-.725-1.31-.063-2.004 1.004-1.056.91-1.439-.489-2.012a3.925 3.925 0 0 1-1.79-1.438 3.942 3.942 0 0 1-.684-2.196c0-.736.223-1.31.97-1.43.803-.13 1.397.333 1.449 1.102.099 1.448.946 1.668 2.147 1.632 2.053-.06 4.123-.035 6.166-.047 5.432 0 10.866.011 16.301.034.924 0 1.397-.373 1.584-1.318.307-1.55 1.1-1.806 2.408-.874.233 2.282-.597 3.876-2.86 4.648-1.05.358-.956 1.185-.316 1.806.809.78.844 1.34.017 2.128-.621.587-.646 1.312.074 1.98.66.606.825 1.292.03 1.965-.244.204-.497.419-.489.78.041 1.775-1.1 2.701-2.474 3.443-1.182.017-2.367.066-3.549.033-.78-.025-1.124.168-1.146 1.053-.052 2.065-1.116 3.033-3.192 3.052-1.1 0-2.185.016-3.276 0-1.834-.036-2.98-1.07-3.101-2.925-.05-.766-.289-1.078-1.05-1.015-.451.04-.91 0-1.375 0-1.613.1-3.032-.358-4.134-1.618zm11.482-10.663c-2.65 0-5.3-.036-7.95.028-.583.013-1.594-.552-1.663.741-.069 1.293.948.733 1.548.871.091.007.183.007.275 0 .753.047 1.193.433 1.204 1.205.01.772-.404 1.191-1.163 1.243-.41.03-.825.022-1.232.017-.59 0-.635.375-.637.827-.003.452.096.827.668.805h1.1c.76 0 1.206.358 1.272 1.13.069.827-.45 1.147-1.133 1.296-.275.058-.55 0-.824.038-.363.056-.924-.228-1.006.38-.072.516.332.85.775 1.015.382.142.785.219 1.193.227h14.94a2.318 2.318 0 0 0 1.54-.458.827.827 0 0 0 .404-.827c-.09-.436-.481-.331-.78-.345-.46.01-.918-.004-1.375-.041-.696-.113-1.199-.477-1.147-1.282.053-.805.506-1.139 1.26-1.15.456 0 .915-.022 1.374 0 .651.025.726-.369.728-.89.003-.521-.214-.75-.734-.736-.502.02-1.005.015-1.506-.017a1.099 1.099 0 0 1-1.1-1.157c-.027-.759.355-1.21 1.12-1.288.36-.033.728 0 1.099-.014.522-.019 1.119.152 1.146-.744.028-.896-.533-.888-1.16-.888-2.754.02-5.495.014-8.236.014zm-.055 12.13h-1.65c-.467 0-.794.13-.788.686 0 .51.12.924.728.93h3.272c.615 0 .72-.417.717-.93 0-.551-.322-.689-.792-.683-.47.005-.981.002-1.487.002v-.005zM5.498 37.398h3.967c.866 0 1.424.386 1.4 1.302-.026.851-.597 1.19-1.375 1.193H1.416c-.85 0-1.443-.424-1.413-1.312.03-.805.577-1.185 1.391-1.18 1.375.014 2.749 0 4.107 0l-.003-.003z"/><path d="M42.045 21.462c.022-1.103.047-2.206.06-3.309.025-1.742.39-2.125 2.158-1.896a24.419 24.419 0 0 1 8.302 2.633 23.234 23.234 0 0 1 10.372 11.964c1.627 5.213 1.776 10.429-.066 15.623-1.553 4.383-4.123 8.069-7.912 10.767-1.44 1.023-2.056 2.159-1.924 3.896.09 1.078.16 2.189-.16 3.275-.662 2.252-2.297 3.534-4.62 3.55-1.463 0-2.928-.052-4.399 0-1.333.061-1.784-.55-1.756-1.813.038-1.693-.03-3.389-.052-5.081.019-.276.055-.551.055-.827V22.399c.03-.3-.02-.618-.058-.938zm2.609 34.112c0 2.205-.036 4.397-.042 6.597 0 3.465 0 3.465 3.494 3.308h.275c1.22-.121 1.999-.91 2.04-2.145.038-1.103-.02-2.205.022-3.308.06-1.682.635-3.137 2.075-4.121a19.244 19.244 0 0 0 4.371-3.915c4.124-5.205 5.754-11.027 4.272-17.588-1.218-5.988-4.563-10.368-9.943-13.208a20.309 20.309 0 0 0-5.429-2.114c-.786-.185-1.177-.072-1.155.882.06 2.793.042 5.585.055 8.375l-.024 27.237h-.011zM40.597 76.478c-.728 0-1.46.02-2.2 0a1.099 1.099 0 0 1-1.099-1.158c-.027-.705.341-1.26 1.127-1.276 1.501-.03 3.004-.03 4.509 0 .761.014 1.174.471 1.174 1.23 0 .758-.435 1.185-1.19 1.215-.757.03-1.548 0-2.324 0l.003-.01zM40.61 80.583c-.638 0-1.276.028-1.91 0-.825-.044-1.422-.48-1.41-1.343.01-.862.626-1.122 1.412-1.102 1.41.016 2.82 0 4.23 0 .611 0 1.062.184 1.139.896.077.71-.121 1.32-.885 1.441-.847.136-1.716.122-2.573.174l-.003-.066z"/><path d="M57.533 37.148c-.138.777-.668 1.102-1.375 1.226-.632-.132-1.05-.419-1.151-1.15-.55-4.06-2.376-7.34-5.902-9.576-.624-.397-.79-1.015-.325-1.654.52-.717 1.144-.789 1.9-.298 4.145 2.693 6.325 6.57 6.853 11.451zM55.046 41.511c1.578.097 2.05.634 1.547 2.013a13.138 13.138 0 0 1-2.273 4.135c-.935 1.089-1.523 1.053-2.474-.091a1.383 1.383 0 0 1 .275-1.172 15.776 15.776 0 0 0 2.215-4.08c.13-.306.47-.535.71-.805z"/></g><defs><clipPath id="a"><path fill="#fff" d="M0 0h80v88.627H0z"/></clipPath></defs></svg>
